X:170
T:Persion. JGi.170
T:Galopede,aka. JGi.170
M:2/4
L:1/8
Q:1/4=90
S:Joshua Gibbons MS,1823,Tealby,Lincs.
R:Country Dance
C:Market Raisin Band Recorda
O:Tealby,Lincolnshire
Z:VMP/R.Greig, 2009
K:C
g/f/|ee/f/ dd/e/|ccc d/e/|ff/g/ ee/f/|ddd g/f/|
ee/f/ dd/e/|ccc d/e/|f/e/d/c/ B/c/d/B/|ccc:|
|:e/f/|gggc’|gggc’|gg a/g/f/e/|fdd e/f/|
ggga|gggc’|ge/f/ g/f/e/d/|ccc:|

